images/indikatorenset/5797.svg

<?xml version="1.0" standalone="no"?><!DOCTYPE svg PUBLIC "-//W3C//DTD SVG 1.1//EN" "http://www.w3.org/Graphics/SVG/1.1/DTD/svg11.dtd"><svg xmlns:xlink="http://www.w3.org/1999/xlink" version="1.1" class="highcharts-root" style="font-family:arial;font-size:9pt;" xmlns="http://www.w3.org/2000/svg" width="485" height="415"><desc>Created with Highstock 5.0.14</desc><defs><clipPath id="highcharts-qiql44v-7"><rect x="0" y="0" width="422" height="254" fill="none"></rect></clipPath><clipPath id="highcharts-qiql44v-8"><rect x="0" y="0" width="422" height="254" fill="none"></rect></clipPath></defs><rect fill="#fbfbfb" class="highcharts-background" x="0" y="0" width="485" height="415" rx="0" ry="0"></rect><rect fill="none" class="highcharts-plot-background" x="53" y="90" width="422" height="254"></rect><g class="highcharts-label" style="cursor:pointer;" transform="translate(10,451)"><text x="0" y="0"><tspan>&gt; Indikator-Details</tspan></text></g><g class="highcharts-pane-group"></g><g class="highcharts-grid highcharts-xaxis-grid "><path fill="none" class="highcharts-grid-line" d="M 87.5 90 L 87.5 344" opacity="1"></path><path fill="none" class="highcharts-grid-line" d="M 122.5 90 L 122.5 344" opacity="1"></path><path fill="none" class="highcharts-grid-line" d="M 158.5 90 L 158.5 344" opacity="1"></path><path fill="none" class="highcharts-grid-line" d="M 193.5 90 L 193.5 344" opacity="1"></path><path fill="none" class="highcharts-grid-line" d="M 228.5 90 L 228.5 344" opacity="1"></path><path fill="none" class="highcharts-grid-line" d="M 263.5 90 L 263.5 344" opacity="1"></path><path fill="none" class="highcharts-grid-line" d="M 298.5 90 L 298.5 344" opacity="1"></path><path fill="none" class="highcharts-grid-line" d="M 333.5 90 L 333.5 344" opacity="1"></path><path fill="none" class="highcharts-grid-line" d="M 368.5 90 L 368.5 344" opacity="1"></path><path fill="none" class="highcharts-grid-line" d="M 404.5 90 L 404.5 344" opacity="1"></path><path fill="none" class="highcharts-grid-line" d="M 439.5 90 L 439.5 344" opacity="1"></path><path fill="none" class="highcharts-grid-line" d="M 474.5 90 L 474.5 344" opacity="1"></path><path fill="none" class="highcharts-grid-line" d="M 52.5 90 L 52.5 344" opacity="1"></path></g><g class="highcharts-grid highcharts-yaxis-grid "><path fill="none" stroke="#e6e6e6" stroke-width="1" class="highcharts-grid-line" d="M 53 344.5 L 475 344.5" opacity="1"></path><path fill="none" stroke="#e6e6e6" stroke-width="1" class="highcharts-grid-line" d="M 53 293.5 L 475 293.5" opacity="1"></path><path fill="none" stroke="#e6e6e6" stroke-width="1" class="highcharts-grid-line" d="M 53 242.5 L 475 242.5" opacity="1"></path><path fill="none" stroke="#e6e6e6" stroke-width="1" class="highcharts-grid-line" d="M 53 192.5 L 475 192.5" opacity="1"></path><path fill="none" stroke="#e6e6e6" stroke-width="1" class="highcharts-grid-line" d="M 53 141.5 L 475 141.5" opacity="1"></path><path fill="none" stroke="#e6e6e6" stroke-width="1" class="highcharts-grid-line" d="M 53 89.5 L 475 89.5" opacity="1"></path></g><g class="highcharts-grid highcharts-yaxis-grid "></g><rect fill="none" class="highcharts-plot-border" x="53" y="90" width="422" height="254"></rect><g class="highcharts-axis highcharts-xaxis "><path fill="none" class="highcharts-axis-line" stroke="#ccd6eb" stroke-width="1" d="M 53 344.5 L 475 344.5"></path></g><g class="highcharts-axis highcharts-yaxis "><path fill="none" class="highcharts-axis-line" d="M 53 90 L 53 344"></path></g><g class="highcharts-axis highcharts-yaxis "><path fill="none" class="highcharts-axis-line" d="M 475 90 L 475 344"></path></g><g class="highcharts-series-group"><g class="highcharts-series highcharts-series-0 highcharts-column-series highcharts-color-undefined " transform="translate(53,90) scale(1 1)" clip-path="url(#highcharts-qiql44v-8)"><rect x="9" y="111" width="17" height="144" fill="#73B97C" class="highcharts-point"></rect><rect x="44" y="97" width="17" height="158" fill="#73B97C" class="highcharts-point"></rect><rect x="79" y="57" width="17" height="198" fill="#73B97C" class="highcharts-point"></rect><rect x="115" y="50" width="17" height="205" fill="#73B97C" class="highcharts-point"></rect><rect x="150" y="54" width="17" height="201" fill="#73B97C" class="highcharts-point"></rect><rect x="185" y="48" width="17" height="207" fill="#73B97C" class="highcharts-point"></rect><rect x="220" y="56" width="17" height="199" fill="#73B97C" class="highcharts-point"></rect><rect x="255" y="55" width="17" height="200" fill="#73B97C" class="highcharts-point"></rect><rect x="290" y="45" width="17" height="210" fill="#73B97C" class="highcharts-point"></rect><rect x="326" y="61" width="17" height="194" fill="#73B97C" class="highcharts-point"></rect><rect x="361" y="53" width="17" height="202" fill="#73B97C" class="highcharts-point"></rect><rect x="396" y="69" width="17" height="186" fill="#73B97C" class="highcharts-point"></rect></g><g class="highcharts-markers highcharts-series-0 highcharts-column-series highcharts-color-undefined " transform="translate(53,90) scale(1 1)" clip-path="none"></g><g class="highcharts-series highcharts-series-1 highcharts-line-series highcharts-color-undefined " transform="translate(53,90) scale(1 1)" clip-path="url(#highcharts-qiql44v-8)"><path fill="none" d="M 17.583333333333 50.80000000000001 L 52.75 50.80000000000001 L 87.916666666667 50.80000000000001 L 123.08333333333 50.80000000000001 L 158.25 50.80000000000001 L 193.41666666667 50.80000000000001 L 228.58333333333 50.80000000000001 L 263.75 50.80000000000001 L 298.91666666667 50.80000000000001 L 334.08333333333 50.80000000000001 L 369.25 50.80000000000001 L 404.41666666667 50.80000000000001" class="highcharts-graph" stroke="#444444" stroke-width="2" stroke-dasharray="6,2"></path></g><g class="highcharts-markers highcharts-series-1 highcharts-line-series highcharts-color-undefined " transform="translate(53,90) scale(1 1)" clip-path="none"></g></g><text x="10" text-anchor="start" class="highcharts-title" style="color:#000000;font-size:1.1em;font-weight:bold;fill:#000000;" y="20"><tspan>Nachhaltige Holznutzung</tspan></text><text x="10" text-anchor="start" class="highcharts-subtitle" style="color:#000000;font-size:0.9em;fill:#000000;" y="38"><tspan>Prozent</tspan></text><g class="highcharts-legend" transform="translate(10,40)"><rect fill="none" class="highcharts-legend-box" rx="0" ry="0" x="0" y="0" width="357" height="38" visibility="visible"></rect><g><g><g class="highcharts-legend-item highcharts-column-series highcharts-color-undefined highcharts-series-0" transform="translate(12,7)"><text x="21" style="color:#333333;font-size:1em;font-weight:normal;cursor:pointer;fill:#333333;" text-anchor="start" y="15"><tspan>Kantone Basel-Stadt und Basel-Landschaft</tspan></text><rect x="2" y="4" width="12" height="12" fill="#73B97C" class="highcharts-point"></rect></g><g class="highcharts-legend-item highcharts-line-series highcharts-color-undefined highcharts-series-1" transform="translate(282.34375,7)"><path fill="none" d="M 0 11 L 16 11" class="highcharts-graph" stroke-dasharray="6,2" stroke="#444444" stroke-width="2"></path><text x="21" y="15" style="color:#333333;font-size:1em;font-weight:normal;cursor:pointer;fill:#333333;" text-anchor="start"><tspan>Zielwert</tspan></text></g></g></g></g><g class="highcharts-axis-labels highcharts-xaxis-labels "><text x="70.58333333333333" style="color:#000000;cursor:default;font-size:0.9em;fill:#000000;" text-anchor="middle" transform="translate(0,0)" y="363" opacity="1">2004</text><text x="105.75" style="color:#000000;cursor:default;font-size:0.9em;fill:#000000;" text-anchor="middle" transform="translate(0,0)" y="363" opacity="1">2005</text><text x="140.91666666666666" style="color:#000000;cursor:default;font-size:0.9em;fill:#000000;" text-anchor="middle" transform="translate(0,0)" y="363" opacity="1">2006</text><text x="176.08333333333331" style="color:#000000;cursor:default;font-size:0.9em;fill:#000000;" text-anchor="middle" transform="translate(0,0)" y="363" opacity="1">2007</text><text x="211.25" style="color:#000000;cursor:default;font-size:0.9em;fill:#000000;" text-anchor="middle" transform="translate(0,0)" y="363" opacity="1">2008</text><text x="246.41666666666666" style="color:#000000;cursor:default;font-size:0.9em;fill:#000000;" text-anchor="middle" transform="translate(0,0)" y="363" opacity="1">2009</text><text x="281.5833333333333" style="color:#000000;cursor:default;font-size:0.9em;fill:#000000;" text-anchor="middle" transform="translate(0,0)" y="363" opacity="1">2010</text><text x="316.75" style="color:#000000;cursor:default;font-size:0.9em;fill:#000000;" text-anchor="middle" transform="translate(0,0)" y="363" opacity="1">2011</text><text x="351.91666666666663" style="color:#000000;cursor:default;font-size:0.9em;fill:#000000;" text-anchor="middle" transform="translate(0,0)" y="363" opacity="1">2012</text><text x="387.0833333333333" style="color:#000000;cursor:default;font-size:0.9em;fill:#000000;" text-anchor="middle" transform="translate(0,0)" y="363" opacity="1">2013</text><text x="422.25" style="color:#000000;cursor:default;font-size:0.9em;fill:#000000;" text-anchor="middle" transform="translate(0,0)" y="363" opacity="1">2014</text><text x="457.41666666666663" style="color:#000000;cursor:default;font-size:0.9em;fill:#000000;" text-anchor="middle" transform="translate(0,0)" y="363" opacity="1">2015</text></g><g class="highcharts-axis-labels highcharts-yaxis-labels "><text x="38" style="color:#000000;cursor:default;font-size:0.9em;fill:#000000;" text-anchor="end" transform="translate(0,0)" y="349" opacity="1"><tspan>0%</tspan></text><text x="38" style="color:#000000;cursor:default;font-size:0.9em;fill:#000000;" text-anchor="end" transform="translate(0,0)" y="298" opacity="1"><tspan>25%</tspan></text><text x="38" style="color:#000000;cursor:default;font-size:0.9em;fill:#000000;" text-anchor="end" transform="translate(0,0)" y="247" opacity="1"><tspan>50%</tspan></text><text x="38" style="color:#000000;cursor:default;font-size:0.9em;fill:#000000;" text-anchor="end" transform="translate(0,0)" y="196" opacity="1"><tspan>75%</tspan></text><text x="38" style="color:#000000;cursor:default;font-size:0.9em;fill:#000000;" text-anchor="end" transform="translate(0,0)" y="145" opacity="1"><tspan>100%</tspan></text><text x="38" style="color:#000000;cursor:default;font-size:0.9em;fill:#000000;" text-anchor="end" transform="translate(0,0)" y="95" opacity="1"><tspan>125%</tspan></text></g><g class="highcharts-axis-labels highcharts-yaxis-labels "></g><text x="10" class="highcharts-credits" text-anchor="start" style="cursor:default;color:#000000;font-size:0.8em;fill:#000000;" y="400"><tspan>Quelle: Amt für Wald beider Basel</tspan></text></svg>

<svg class="highcharts-root" xmlns="http://www.w3.org/2000/svg" viewBox="0 0 485 415" font-family="Arial" font-size="12">
    <defs>
        <clipPath id="a">
            <path fill="none" d="M0 0h422v254H0z"/>
        </clipPath>
    </defs>
    <rect fill="#fbfbfb" class="highcharts-background" width="485" height="415" rx="0" ry="0"/>
    <path fill="none" class="highcharts-plot-background" d="M53 90h422v254H53z"/>
    <text transform="translate(10 451)" class="highcharts-label" cursor="pointer">
        <tspan>&gt; Indikator-Details</tspan>
    </text>
    <g class="highcharts-grid highcharts-xaxis-grid">
        <path fill="none" class="highcharts-grid-line" d="M87.5 90v254m0-254v254m35-254v254m0-254v254m36-254v254m0-254v254m35-254v254m0-254v254m35-254v254m0-254v254m35-254v254m0-254v254m35-254v254m0-254v254m35-254v254m0-254v254m35-254v254m0-254v254m36-254v254m0-254v254m35-254v254m0-254v254m35-254v254m0-254v254M52.5 90v254m0-254v254"/>
    </g>
    <g class="highcharts-grid highcharts-yaxis-grid">
        <path fill="none" stroke="#e6e6e6" class="highcharts-grid-line" d="M53 344.5h422m-422-51h422m-422-51h422m-422-50h422m-422-51h422m-422-52h422"/>
    </g>
    <path fill="none" class="highcharts-plot-border" d="M53 90h422v254H53z"/>
    <g class="highcharts-axis highcharts-xaxis">
        <path fill="none" class="highcharts-axis-line" stroke="#ccd6eb" d="M53 344.5h422"/>
    </g>
    <g class="highcharts-axis highcharts-yaxis">
        <path fill="none" class="highcharts-axis-line" d="M53 90v254"/>
    </g>
    <g class="highcharts-axis highcharts-yaxis">
        <path fill="none" class="highcharts-axis-line" d="M475 90v254"/>
    </g>
    <g class="highcharts-series-group">
        <g class="highcharts-series highcharts-series-0 highcharts-column-series highcharts-color-undefined highcharts-tracker" transform="translate(53 90)" clip-path="url(#a)">
            <path fill="#73B97C" class="highcharts-point" d="M9 111h17v144H9zm35-14h17v158H44zm35-40h17v198H79zm36-7h17v205h-17zm35 4h17v201h-17zm35-6h17v207h-17zm35 8h17v199h-17zm35-1h17v200h-17zm35-10h17v210h-17zm36 16h17v194h-17zm35-8h17v202h-17zm35 16h17v186h-17z"/>
        </g>
        <g class="highcharts-series highcharts-series-1 highcharts-line-series highcharts-color-undefined" transform="translate(53 90)" clip-path="url(#a)">
            <path fill="none" d="M17.583 50.8h386.834" class="highcharts-graph" stroke="#444" stroke-width="2" stroke-dasharray="6,2"/>
            <path fill="none" d="M7.583 50.8h406.834" stroke-linejoin="round" stroke="rgba(192,192,192,0.0001)" stroke-width="22" class="highcharts-tracker"/>
        </g>
    </g>
    <text x="10" class="highcharts-title" y="20" color="#000" font-size="1.1em" font-weight="700">
        <tspan>Nachhaltige Holznutzung</tspan>
    </text>
    <text x="10" class="highcharts-subtitle" y="38" color="#000" font-size=".9em">
        <tspan>Prozent</tspan>
    </text>
    <g class="highcharts-legend" transform="translate(10 40)">
        <rect fill="none" class="highcharts-legend-box" rx="0" ry="0" width="357" height="38"/>
        <g class="highcharts-legend-item highcharts-column-series highcharts-color-undefined highcharts-series-0">
            <text x="21" y="15" color="#333" font-size="1em" font-weight="400" cursor="pointer" fill="#333" transform="translate(12 7)">
                <tspan>Kantone Basel-Stadt und Basel-Landschaft</tspan>
            </text>
            <path fill="#73B97C" class="highcharts-point" d="M14 11h12v12H14z"/>
        </g>
        <g class="highcharts-legend-item highcharts-line-series highcharts-color-undefined highcharts-series-1">
            <path fill="none" d="M282.344 18h16" class="highcharts-graph" stroke-dasharray="6,2" stroke="#444" stroke-width="2"/>
            <text x="21" y="15" color="#333" font-size="1em" font-weight="400" cursor="pointer" fill="#333" transform="translate(282.344 7)">
                <tspan>Zielwert</tspan>
            </text>
        </g>
    </g>
    <g class="highcharts-axis-labels highcharts-xaxis-labels" text-anchor="middle" color="#000" cursor="default" font-size=".9em">
        <text x="70.583" y="363">
            2004
        </text>
        <text x="105.75" y="363">
            2005
        </text>
        <text x="140.917" y="363">
            2006
        </text>
        <text x="176.083" y="363">
            2007
        </text>
        <text x="211.25" y="363">
            2008
        </text>
        <text x="246.417" y="363">
            2009
        </text>
        <text x="281.583" y="363">
            2010
        </text>
        <text x="316.75" y="363">
            2011
        </text>
        <text x="351.917" y="363">
            2012
        </text>
        <text x="387.083" y="363">
            2013
        </text>
        <text x="422.25" y="363">
            2014
        </text>
        <text x="457.417" y="363">
            2015
        </text>
    </g>
    <g class="highcharts-axis-labels highcharts-yaxis-labels" text-anchor="end" color="#000" cursor="default" font-size=".9em">
        <text x="38" y="349">
            <tspan>0%</tspan>
        </text>
        <text x="38" y="298">
            <tspan>25%</tspan>
        </text>
        <text x="38" y="247">
            <tspan>50%</tspan>
        </text>
        <text x="38" y="196">
            <tspan>75%</tspan>
        </text>
        <text x="38" y="145">
            <tspan>100%</tspan>
        </text>
        <text x="38" y="95">
            <tspan>125%</tspan>
        </text>
    </g>
    <text x="10" class="highcharts-credits" y="400" cursor="default" color="#000" font-size=".8em">
        <tspan>Quelle: Amt für Wald beider Basel</tspan>
    </text>
</svg>
